icons-common/more-vertical.svg

<svg height="1em" width="auto" viewBox="0 0 105 105" fill="currentColor" xmlns="http://www.w3.org/2000/svg">
    <path d="M52 62C57.5228 62 62 57.5228 62 52C62 46.4772 57.5228 42 52 42C46.4772 42 42 46.4772 42 52C42 57.5228 46.4772 62 52 62Z"/>
    <path d="M52 87C57.5228 87 62 82.5228 62 77C62 71.4772 57.5228 67 52 67C46.4772 67 42 71.4772 42 77C42 82.5228 46.4772 87 52 87Z"/>
    <path d="M52 38C57.5228 38 62 33.5228 62 28C62 22.4772 57.5228 18 52 18C46.4772 18 42 22.4772 42 28C42 33.5228 46.4772 38 52 38Z"/>
</svg>

<svg xmlns="http://www.w3.org/2000/svg" width="auto" height="1em" fill="currentColor" viewBox="0 0 105 105">
    <path d="M52 62c5.523 0 10-4.477 10-10s-4.477-10-10-10-10 4.477-10 10 4.477 10 10 10m0 25c5.523 0 10-4.477 10-10s-4.477-10-10-10-10 4.477-10 10 4.477 10 10 10m0-49c5.523 0 10-4.477 10-10s-4.477-10-10-10-10 4.477-10 10 4.477 10 10 10"/>
</svg>
